src/pos-icons/shield-airplane.svg

<svg height="24" viewBox="0 0 24 24" width="24" xmlns="http://www.w3.org/2000/svg"><path d="m12 1-9 4v6c0 5.55 3.84 10.74 9 12 5.16-1.26 9-6.45 9-12v-6zm0 4.68c.5 0 .95.43.95.95v3.48l5.05 3.15v1.27l-5.05-1.58v3.47l1.26.95v.95l-2.21-.64-2.21.64v-.95l1.26-.95v-3.47l-5.05 1.58v-1.27l5.05-3.15v-3.48c0-.52.45-.95.95-.95z"/></svg>

<?xml version="1.0" encoding="UTF-8"?><!DOCTYPE svg PUBLIC "-//W3C//DTD SVG 1.1//EN" "http://www.w3.org/Graphics/SVG/1.1/DTD/svg11.dtd"><svg xmlns="http://www.w3.org/2000/svg" xmlns:xlink="http://www.w3.org/1999/xlink" version="1.1" id="mdi-shield-airplane" width="24" height="24" viewBox="0 0 24 24"><path d="M12,1L3,5V11C3,16.55 6.84,21.74 12,23C17.16,21.74 21,16.55 21,11V5L12,1M12,5.68C12.5,5.68 12.95,6.11 12.95,6.63V10.11L18,13.26V14.53L12.95,12.95V16.42L14.21,17.37V18.32L12,17.68L9.79,18.32V17.37L11.05,16.42V12.95L6,14.53V13.26L11.05,10.11V6.63C11.05,6.11 11.5,5.68 12,5.68Z" /></svg>
